X: 16984
T: Head First
R: jig
M: 6/8
K: Gdorian
GFD G3|GFD FDC|GFD GA/B/c|BDD AFD|
GFD G3|GFD FDC|DE/F/G FDC|B,CA, G,D/E/F||
GFD G3|GFD FDC|GFD GA/B/c|dcB cBA|
GFD G3|GFD FDC|DE/F/G FDC|B,CA, G,FG||
BGG BGc|GBG AFD|BGG Bcd-|dcB c2d|
BGG BGc|GBG AFD|~G3 FDC|B,CA, G,E/F/G||
BGG BGc|GBG AFD|BGG Bcd-|dcB c2d|
BGG BGc|GBG AFD|~G3 FDC|B,CA, G,D/E/F||

